!!! OTL: Literature88
!!! Chapter: 5
!!! Section: III
!!! Page: 365
!!! Mode: 
!!! Encoder: DJB
**kern
*staff1
*I"Piano
=1-
*clefC3
*k[b-e-a-d-]
*A-:
*M3/8
8r
8r
16.E-/LL
32A-/JJk
=2
8c/L
16.c/L
32B-/K
16.A-/
32c/JJk
=3
[8F/L
16.F/L]
32An/K
16.B-/
32c/JJk
=4
16.d-/LL
32c/K
16.B-/
32d-/K
16.G/
32B-/JJk
=5
16.En/LL
32G/JK
8c/
16.c/L
32B-/JJk
=6
16.A-/LL
32F/JK
8.B-/
16d-/Jk
=7
16.G/LL
32E-/JK
8A-/
16.A-/L
32c/JJk
=8
4.e-\
=9
!!linebreak:original
8c\
8r
16.A-/LL
32c/JJk
=10
4.e-\
=11
8c\
8r
16.A-/LL
32c/JJk
=12
4.e-\
=13
8d-\
4c\
=14
8B-/
4A-/
=15
4G/
24G/LL
24A-/
24B-/JJ
=16
8A-/
4r
==
*-
